X: 1
T: FLAMING O'FLANIGAN'S -- JIG
B: Ryan's Mammoth Collection of Fiddle Tunes
M: 6/8
L: 1/8
Z: Contributed 20010701005813 by John Chambers jc:trillian.mit.edu
K: C
(uc/d/) "^segno"\
| efe ded | cdc ceg | ab"4"c' gfe | edd dgf \
| ke3 dcd | cdc ceg | ab"4"c' gfe | fdB c2 :|
(ug/f/) \
| efg g2g | g>ag ab"4"c' | gfe edc | Bcd d2g \
| efg g2g | g>ag ab"4"c' | g>fe edc | Bcd dgf "^segno"[|]|]
